X: 23
T:Bear Dance
M:2/4
L:1/4
C:Trad. Netherlands
S:David Kidd
Z:Andy Alexis
K:Am
|:c/2d/2|eAAc|B/2A/2GAA/2B/2|ccBc|d3c/2d/2|eAAc|B/2A/2GAB|ccB/2A/2G|A3:|
!|:A/2B/2
|c>ed/2c/2B|c/2B/2c/2e/2d/2c/2B|g/2d/2B/2d/2g_B|Afe^g|aecB|ABcd/2e/2|f/
2e/2d/2c/2B/2A/2G|A3:|

